X:4
T:K.V. 487/4
M:3/4
L:1/8
K:C major
V:1
+mf+ cc/2B/2 cG e2 | dd/2c/2 dG f2 | +p+ (e/2g/2)c'/2b/2 (b/2a/2)(a/2g/2) (g/2f/2)(f/2e/2) | d/2e/2d/2c/2 B/2c/2B/2A/2 G2 | +mf+ c{/d}c/2B/2 cG e2 | d{e}d/2c/2 dG f2 | (e/2g/2)c'/2b/2 (b/2a/2)(a/2g/2) (g/2f/2)(f/2e/2) |
V:2
+mf+ C2 z CCC | B,2 z B,B,B, | +p+ C(e f)(e d) c | B(B/2c/2) d(d/2c/2) BG | +mf+ C2 z CCC | B,2 z B,B,B, | C,(e f)(e d)c |
V:1
(e/2d/2c/2B/2) B2 c z :|] +f+ d3 (f eg) | g2 (g/2f/2e/2f/2) e2 | d3 f (e/2g/2)c'/2a/2 | g2 (g/2f/2e/2f/2) e2 | ^fgfg {b/2}(ag/2f/2) | gddddd | ^fgfg {b/2}(ag/2f/2) |
V:2
GG G2 C2 :|] BGBGcG | dGBGcG | BGBGcG | dGBGcC | (cB)(cB)(cd) | G2 z dBG | (cB)(cB)(cd) |
V:1
g2 z G Bd | g2 z g Bd | f3 (g/2a/2) (g/2e/2)(f/2d/2) | +p+ cc/2B/2 cG e2 | dd/2c/2 dG f2 | +mf+ (e/2g/2)c'/2b/2 (b/2a/2)(a/2g/2) (g/2f/2)(f/2e/2) | (d/2e/2)d/2c/2 (B/2c/2)B/2A/2 G2 | c{/d}c/2B/2 cG e2 | d{/e}d/2c/2 dG f2 | (e/2g/2)c'/2b/2 (b/2a/2)(a/2g/2) (g/2f/2)(f/2e/2) | (e/2d/2c/2B/2) (B2c) z |]
V:2
G/2g/2d/2B/2 G2 z2 | z/2 (G/2^F/2G/2) G,2 z2 | z6 | +p+ C2 z +mf+ CCC | B,2 z B,B,B, | C,(e f)(e d)c | B(B/2c/2) d(d/2c/2) BG | C2 z CCC | B,2 z B,B,B, | C(e f) (e d) c | GG G2 C2 |]

